X:81
T:The Barley Raking - Hannaford
C:Taken down from R. Hannaford by H.Fl.S.
%%VWML:SBG-1-1-401-1
F:http://www.vwml.org/record/SBG/1/1/401
Z:Original Sibleius Transcription by Martin and Shan Graebe
L:1/8
M:6/8
I:linebreak $
K:C
c | c2 G GA _B | AG F E2 G | A2 G G2 A | c3 c2 c | c2 G GA _B | AG F E2 G |$ A2 A G2 A | c3 c2 c | 
c2 c d2 e | f2 e d2 B | c2 d e2 c | d2 B G2 G | c2 c d2 e |$ f2 e d2 c | cB A G2 F | E3 C3 :| 
"^[This added by H.Fl.S.  not sung . . . . . . . . . . . . . . . . . . . . . . . .  .  . .  . ]" E2 F G2 G | AG A F3 | 
F2 d d2 c | BA B !fermata!c2  |] 


